public/svgs/main-description-cn.svg

<svg xmlns="http://www.w3.org/2000/svg" fill="none" viewBox="0 0 287 35"><path fill="#222" d="M6.92 33.88a7.4 7.4 0 0 0-.396-1.26 34 34 0 0 0-.612-1.368 5.7 5.7 0 0 0-.648-1.044 4.6 4.6 0 0 0 1.188-.936q.576-.648.576-1.8V.544h4.536v29.7l-.468.252q-.468.216-1.152.576a32 32 0 0 0-1.404.864q-.684.468-1.152.972t-.468.972m0 0-.396-3.996 2.052-1.476 10.728-2.34q0 .972.108 2.196.144 1.224.288 1.98-3.708.9-6.048 1.476t-3.672.972q-1.296.396-1.98.648-.648.288-1.08.54M.836 13.972H33.2v4.32H.836zm18.828 2.196q1.116 3.168 3.096 5.688a19.2 19.2 0 0 0 4.788 4.32q2.844 1.8 6.516 2.736a10 10 0 0 0-1.08 1.224q-.576.72-1.08 1.476a29 29 0 0 0-.864 1.44q-3.96-1.296-6.912-3.492a21.6 21.6 0 0 1-5.004-5.328q-2.088-3.132-3.492-7.092zm6.408-15.12 4.392 1.944Q28.7 4.9 26.36 6.7a54 54 0 0 1-4.788 3.276 50 50 0 0 1-4.86 2.556q-.36-.468-1.008-1.152t-1.296-1.332a8 8 0 0 0-1.224-1.08 38.5 38.5 0 0 0 4.824-2.088 39 39 0 0 0 4.5-2.736q2.088-1.476 3.564-3.096m12.6 1.944h28.584v3.6H38.672zm1.476 5.544H65.96v3.492H40.148zm-3.456 5.544h32.652v3.708H36.692zm.648 6.336h31.392v3.78H37.34zm21.528-3.024h4.392v12.096q0 1.548-.36 2.448-.36.936-1.476 1.44-1.08.504-2.592.612-1.512.144-3.456.108-.144-.9-.612-2.124a28 28 0 0 0-.828-2.052q1.296.036 2.556.036h1.656q.396 0 .54-.108.18-.144.18-.468zM50.264.364l4.752.432q-.9 7.704-2.664 13.86-1.728 6.12-4.788 10.728-3.024 4.608-7.776 7.668-.36-.432-1.08-1.08a44 44 0 0 0-1.476-1.26 16 16 0 0 0-1.368-1.08q4.752-2.592 7.632-6.732t4.464-9.792T50.264.364M45.98 27.472l3.492-2.196a55 55 0 0 1 1.584 1.656q.828.9 1.548 1.8.756.864 1.188 1.62l-3.708 2.412a16 16 0 0 0-1.08-1.656 29 29 0 0 0-1.476-1.872 30 30 0 0 0-1.548-1.764M82.952 3.964h22.932v3.888H82.952zm4.68 9.936v3.564h13.14V13.9zm-3.924-3.492h21.24v10.584h-21.24zm3.384 10.98q1.656 2.556 4.392 4.428Q94.22 27.652 98 28.768t8.46 1.548q-.468.468-.972 1.152-.468.684-.9 1.404-.396.72-.684 1.296-4.86-.648-8.748-2.124-3.852-1.44-6.732-3.816-2.844-2.412-4.86-5.796zM92.024.652h4.284v16.416q0 2.196-.288 4.32a17.8 17.8 0 0 1-1.044 4.032 12.5 12.5 0 0 1-2.088 3.564q-1.368 1.656-3.528 2.988t-5.256 2.232q-.216-.468-.72-1.152-.468-.648-.972-1.332a9 9 0 0 0-.972-1.08q2.916-.648 4.824-1.656 1.944-1.044 3.096-2.376t1.728-2.844a13.3 13.3 0 0 0 .756-3.24q.18-1.692.18-3.492zM80.216.328l3.996 1.296a54 54 0 0 1-2.916 6.12 58 58 0 0 1-3.6 5.76q-1.908 2.7-3.96 4.752-.18-.54-.576-1.368a38 38 0 0 0-.864-1.692 13 13 0 0 0-.828-1.368 31 31 0 0 0 3.348-3.816 37 37 0 0 0 3.024-4.644 44 44 0 0 0 2.376-5.04m-3.528 10.008 4.104-4.104v28.08h-4.104zm48.168-5.904q-1.512 1.908-3.852 3.888a52 52 0 0 1-5.148 3.816 50 50 0 0 1-5.724 3.204q-.288-.54-.756-1.188-.432-.648-.936-1.296-.504-.684-.972-1.152 3.06-1.296 5.94-3.168 2.916-1.908 5.22-4.032 2.34-2.124 3.78-4.104h4.536a33 33 0 0 0 3.348 3.492 39 39 0 0 0 3.852 3.06 42 42 0 0 0 4.176 2.52q2.16 1.08 4.356 1.872a14 14 0 0 0-1.584 1.908q-.72 1.044-1.296 2.016a64 64 0 0 1-4.14-2.196 58 58 0 0 1-4.14-2.7 48 48 0 0 1-3.744-2.952q-1.692-1.512-2.916-2.988m-7.164 5.256h14.544v3.852h-14.544zm-4.392 6.048h10.044v12.996H113.3v-3.744h6.12V19.48h-6.12zm12.384.036h10.368v3.744h-6.264v14.832h-4.104zm9.144 0h4.14v10.8q0 1.368-.324 2.232-.288.864-1.26 1.368-.9.468-2.232.576a56 56 0 0 1-3.06.072q-.108-.864-.468-1.98a14 14 0 0 0-.684-1.908l2.016.072q.972 0 1.296-.036.324 0 .432-.108.144-.108.144-.432zm-23.364-.036h3.852v15.912h-3.852zm42.696 1.368h3.708l-.036.612q0 .576-.036.936-.216 4.5-.468 7.308t-.612 4.32-.9 2.16q-.576.684-1.224.972a5.4 5.4 0 0 1-1.512.396q-.72.072-1.908.072-1.188.036-2.484-.036-.036-.792-.36-1.764a7.3 7.3 0 0 0-.72-1.692q1.224.108 2.232.144 1.044.036 1.512.036t.756-.072q.288-.108.54-.36.36-.432.612-1.728.288-1.332.504-3.924t.396-6.768zm-10.62 7.812q1.8-.324 4.176-.792 2.412-.504 4.968-1.044l.324 3.168-4.536 1.08q-2.232.504-4.212.936zm1.332-23.112h9.468v3.6h-9.468zm8.028-.108h3.672a139 139 0 0 1-.216 4.104 252 252 0 0 1-.252 4.248 159 159 0 0 1-.324 3.996q-.18 1.872-.36 3.384l-3.672-.036a161 161 0 0 0 .684-7.488q.18-2.088.288-4.212t.18-3.996m-7.02 6.048 3.708.216a189 189 0 0 1-.288 4.356q-.18 2.304-.36 4.464a74 74 0 0 1-.396 3.708h-3.672q.216-1.656.432-3.852t.36-4.5q.18-2.34.216-4.392m.324 9.396h8.676v3.348h-8.676zm31.104-14.832v3.888h-14.112V29.02h14.76v3.888h-18.792v-30.6zm-13.788 7.92 3.06-1.944a119 119 0 0 1 3.096 4.176 91 91 0 0 1 3.024 4.464 110 110 0 0 1 2.7 4.356q1.224 2.052 1.944 3.744l-3.42 2.376q-.72-1.728-1.872-3.852a84 84 0 0 0-2.592-4.428 94 94 0 0 0-2.952-4.608 119 119 0 0 0-2.988-4.284m8.856-2.628 3.888.972a70 70 0 0 1-2.736 7.272 71 71 0 0 1-3.42 6.732q-1.8 3.168-3.78 5.508-.324-.36-.936-.9-.576-.54-1.188-1.044-.612-.54-1.08-.864 1.944-2.088 3.672-4.932a50 50 0 0 0 3.132-6.084 57 57 0 0 0 2.448-6.66m24.768.648h14.148v4.14h-14.148zm11.916 0h4.212v.36q0 .36-.036.828v.756a354 354 0 0 1-.288 9.324q-.144 3.816-.36 6.3t-.54 3.924q-.324 1.404-.756 2.016-.648.936-1.332 1.296-.684.396-1.656.576-.864.144-2.16.144-1.296.036-2.7-.036-.036-.936-.396-2.124a9.3 9.3 0 0 0-.9-2.088q1.296.108 2.376.144h1.656q.468 0 .756-.108.288-.144.576-.468.324-.432.54-1.656.252-1.26.432-3.564.18-2.34.288-5.94.144-3.636.288-8.784zm-7.848-7.2h4.284q0 4.212-.108 8.172a93 93 0 0 1-.432 7.524q-.36 3.6-1.152 6.768t-2.16 5.868a17.7 17.7 0 0 1-3.492 4.824 7.2 7.2 0 0 0-.9-1.224q-.54-.612-1.152-1.188a7 7 0 0 0-1.152-.9 15.5 15.5 0 0 0 3.132-4.248q1.224-2.376 1.836-5.22.648-2.844.9-6.084.288-3.24.324-6.804.072-3.6.072-7.488m-19.296 2.16h14.148v3.78h-14.148zm-1.188 8.352h15.984v3.924h-15.984zm10.332 7.164 3.492-.936q.648 1.476 1.296 3.24.684 1.728 1.26 3.384a30 30 0 0 1 .864 2.88l-3.744 1.188a36 36 0 0 0-.756-2.916 66 66 0 0 0-1.152-3.492 52 52 0 0 0-1.26-3.348m-8.784 11.592-.432-3.636 1.836-1.368 11.664-2.736q.036.828.216 1.908.216 1.08.396 1.728-3.276.864-5.508 1.476-2.232.576-3.708 1.008-1.44.396-2.304.684t-1.368.504q-.468.18-.792.432m-.036-.036q-.072-.396-.324-1.116-.216-.72-.504-1.44a20 20 0 0 0-.54-1.296q.54-.18.936-.792.432-.612.864-1.584.216-.504.576-1.584.396-1.116.828-2.592.432-1.512.864-3.204.432-1.728.684-3.42l4.248 1.188a48 48 0 0 1-1.296 4.824 67 67 0 0 1-1.728 4.68q-.9 2.232-1.8 4.032v.108l-.432.216a9 9 0 0 0-.972.576 8 8 0 0 0-.972.756q-.432.36-.432.648m35.856-27.144h29.988v3.492h-29.988zm1.296 26.568h27.576v3.528h-27.576zm6.192-21.528h14.688V11.2h-14.688zm0 4.608h14.688v3.024h-14.688zm-9.432 4.644h33.696v3.528h-33.696zm8.208 6.516h17.352v3.42H224.36zM223.064.4h4.32v18.936h-4.32zm15.66.036h4.428v18.936h-4.428zm-7.992 21.24h4.392v10.08h-4.392zm-5.472-3.24 3.636 1.332a20.8 20.8 0 0 1-2.808 3.636 27 27 0 0 1-3.528 3.096 22 22 0 0 1-3.96 2.268 17 17 0 0 0-1.8-2.304 6.2 6.2 0 0 0-.972-.972 23 23 0 0 0 3.708-1.8q1.8-1.08 3.276-2.448 1.512-1.368 2.448-2.808m15.66 0q.972 1.368 2.412 2.664 1.476 1.26 3.24 2.304 1.8 1.044 3.672 1.728a10 10 0 0 0-1.008 1.008q-.54.576-1.044 1.188-.468.612-.792 1.116a19.8 19.8 0 0 1-3.78-2.232 27 27 0 0 1-3.42-3.024 23.3 23.3 0 0 1-2.7-3.456zM268.856 4.54q-1.476 2.052-3.744 4.248A46 46 0 0 1 260.144 13a45 45 0 0 1-5.652 3.6q-.288-.54-.756-1.188a12 12 0 0 0-.972-1.26 15 15 0 0 0-.972-1.08 34 34 0 0 0 5.94-3.636q2.844-2.196 5.076-4.572 2.268-2.376 3.6-4.572h4.5a38.5 38.5 0 0 0 3.24 3.924 34 34 0 0 0 3.78 3.456 38.5 38.5 0 0 0 4.14 2.844 31 31 0 0 0 4.284 2.124 13.4 13.4 0 0 0-1.548 1.872q-.72 1.044-1.332 2.016a49 49 0 0 1-4.176-2.484 55 55 0 0 1-4.032-2.988 54 54 0 0 1-3.6-3.276q-1.656-1.656-2.808-3.24m-9 6.66h18.108v3.78h-18.108zm-4.32 7.344h26.676v3.744h-26.676zm-1.8 10.944h30.6v3.708h-30.6zm12.78-16.776h4.572V31.36h-4.572zm-8.712 10.944 3.456-1.44q.684.9 1.332 1.98.684 1.08 1.224 2.124t.792 1.872l-3.708 1.656q-.216-.828-.72-1.908a32 32 0 0 0-1.116-2.232 23 23 0 0 0-1.26-2.052m18.288-1.404 4.14 1.512A134 134 0 0 1 278 27.076a43 43 0 0 1-2.124 2.772l-3.24-1.368q.612-.864 1.26-1.908.648-1.08 1.224-2.196.576-1.152.972-2.124"/></svg>

<svg viewBox="0 0 287 35" fill="none" xmlns="http://www.w3.org/2000/svg">
    <path d="M6.92 33.88C6.848 33.52 6.716 33.1 6.524 32.62C6.332 32.164 6.128 31.708 5.912 31.252C5.696 30.82 5.48 30.472 5.264 30.208C5.672 29.992 6.068 29.68 6.452 29.272C6.836 28.84 7.028 28.24 7.028 27.472V0.543999H11.564V30.244C11.564 30.244 11.408 30.328 11.096 30.496C10.784 30.64 10.4 30.832 9.944 31.072C9.488 31.336 9.02 31.624 8.54 31.936C8.084 32.248 7.7 32.572 7.388 32.908C7.076 33.244 6.92 33.568 6.92 33.88ZM6.92 33.88L6.524 29.884L8.576 28.408L19.304 26.068C19.304 26.716 19.34 27.448 19.412 28.264C19.508 29.08 19.604 29.74 19.7 30.244C17.228 30.844 15.212 31.336 13.652 31.72C12.092 32.104 10.868 32.428 9.98 32.692C9.116 32.956 8.456 33.172 8 33.34C7.568 33.532 7.208 33.712 6.92 33.88ZM0.836 13.972H33.2V18.292H0.836V13.972ZM19.664 16.168C20.408 18.28 21.44 20.176 22.76 21.856C24.08 23.536 25.676 24.976 27.548 26.176C29.444 27.376 31.616 28.288 34.064 28.912C33.728 29.224 33.368 29.632 32.984 30.136C32.6 30.616 32.24 31.108 31.904 31.612C31.568 32.14 31.28 32.62 31.04 33.052C28.4 32.188 26.096 31.024 24.128 29.56C22.184 28.096 20.516 26.32 19.124 24.232C17.732 22.144 16.568 19.78 15.632 17.14L19.664 16.168ZM26.072 1.048L30.464 2.992C29.288 4.264 27.92 5.5 26.36 6.7C24.824 7.876 23.228 8.968 21.572 9.976C19.916 10.96 18.296 11.812 16.712 12.532C16.472 12.22 16.136 11.836 15.704 11.38C15.272 10.924 14.84 10.48 14.408 10.048C13.976 9.592 13.568 9.232 13.184 8.968C14.816 8.392 16.424 7.696 18.008 6.88C19.616 6.04 21.116 5.128 22.508 4.144C23.9 3.16 25.088 2.128 26.072 1.048ZM38.672 2.992H67.256V6.592H38.672V2.992ZM40.148 8.536H65.96V12.028H40.148V8.536ZM36.692 14.08H69.344V17.788H36.692V14.08ZM37.34 20.416H68.732V24.196H37.34V20.416ZM58.868 17.392H63.26V29.488C63.26 30.52 63.14 31.336 62.9 31.936C62.66 32.56 62.168 33.04 61.424 33.376C60.704 33.712 59.84 33.916 58.832 33.988C57.824 34.084 56.672 34.12 55.376 34.096C55.28 33.496 55.076 32.788 54.764 31.972C54.476 31.18 54.2 30.496 53.936 29.92C54.8 29.944 55.652 29.956 56.492 29.956C57.332 29.956 57.884 29.956 58.148 29.956C58.412 29.956 58.592 29.92 58.688 29.848C58.808 29.752 58.868 29.596 58.868 29.38V17.392ZM50.264 0.364L55.016 0.795998C54.416 5.932 53.528 10.552 52.352 14.656C51.2 18.736 49.604 22.312 47.564 25.384C45.548 28.456 42.956 31.012 39.788 33.052C39.548 32.764 39.188 32.404 38.708 31.972C38.252 31.564 37.76 31.144 37.232 30.712C36.704 30.256 36.248 29.896 35.864 29.632C39.032 27.904 41.576 25.66 43.496 22.9C45.416 20.14 46.904 16.876 47.96 13.108C49.016 9.34 49.784 5.092 50.264 0.364ZM45.98 27.472L49.472 25.276C49.976 25.78 50.504 26.332 51.056 26.932C51.608 27.532 52.124 28.132 52.604 28.732C53.108 29.308 53.504 29.848 53.792 30.352L50.084 32.764C49.82 32.284 49.46 31.732 49.004 31.108C48.572 30.508 48.08 29.884 47.528 29.236C47 28.588 46.484 28 45.98 27.472ZM82.952 3.964H105.884V7.852H82.952V3.964ZM87.632 13.9V17.464H100.772V13.9H87.632ZM83.708 10.408H104.948V20.992H83.708V10.408ZM87.092 21.388C88.196 23.092 89.66 24.568 91.484 25.816C93.308 27.04 95.48 28.024 98 28.768C100.52 29.512 103.34 30.028 106.46 30.316C106.148 30.628 105.824 31.012 105.488 31.468C105.176 31.924 104.876 32.392 104.588 32.872C104.324 33.352 104.096 33.784 103.904 34.168C100.664 33.736 97.748 33.028 95.156 32.044C92.588 31.084 90.344 29.812 88.424 28.228C86.528 26.62 84.908 24.688 83.564 22.432L87.092 21.388ZM92.024 0.651998H96.308V17.068C96.308 18.532 96.212 19.972 96.02 21.388C95.828 22.78 95.48 24.124 94.976 25.42C94.496 26.692 93.8 27.88 92.888 28.984C91.976 30.088 90.8 31.084 89.36 31.972C87.92 32.86 86.168 33.604 84.104 34.204C83.96 33.892 83.72 33.508 83.384 33.052C83.072 32.62 82.748 32.176 82.412 31.72C82.076 31.288 81.752 30.928 81.44 30.64C83.384 30.208 84.992 29.656 86.264 28.984C87.56 28.288 88.592 27.496 89.36 26.608C90.128 25.72 90.704 24.772 91.088 23.764C91.472 22.732 91.724 21.652 91.844 20.524C91.964 19.396 92.024 18.232 92.024 17.032V0.651998ZM80.216 0.327998L84.212 1.624C83.396 3.664 82.424 5.704 81.296 7.744C80.192 9.76 78.992 11.68 77.696 13.504C76.424 15.304 75.104 16.888 73.736 18.256C73.616 17.896 73.424 17.44 73.16 16.888C72.896 16.336 72.608 15.772 72.296 15.196C71.984 14.62 71.708 14.164 71.468 13.828C72.62 12.724 73.736 11.452 74.816 10.012C75.92 8.572 76.928 7.024 77.84 5.368C78.752 3.712 79.544 2.032 80.216 0.327998ZM76.688 10.336L80.792 6.232V6.268V34.312H76.688V10.336ZM124.856 4.432C123.848 5.704 122.564 7 121.004 8.32C119.444 9.64 117.728 10.912 115.856 12.136C114.008 13.336 112.1 14.404 110.132 15.34C109.94 14.98 109.688 14.584 109.376 14.152C109.088 13.72 108.776 13.288 108.44 12.856C108.104 12.4 107.78 12.016 107.468 11.704C109.508 10.84 111.488 9.784 113.408 8.536C115.352 7.264 117.092 5.92 118.628 4.504C120.188 3.088 121.448 1.72 122.408 0.399999H126.944C127.952 1.624 129.068 2.788 130.292 3.892C131.516 4.996 132.8 6.016 134.144 6.952C135.512 7.888 136.904 8.728 138.32 9.472C139.76 10.192 141.212 10.816 142.676 11.344C142.124 11.896 141.596 12.532 141.092 13.252C140.612 13.948 140.18 14.62 139.796 15.268C138.452 14.62 137.072 13.888 135.656 13.072C134.24 12.232 132.86 11.332 131.516 10.372C130.172 9.412 128.924 8.428 127.772 7.42C126.644 6.412 125.672 5.416 124.856 4.432ZM117.692 9.688H132.236V13.54H117.692V9.688ZM113.3 15.736H123.344V28.732H113.3V24.988H119.42V19.48H113.3V15.736ZM125.684 15.772H136.052V19.516H129.788V34.348H125.684V15.772ZM134.828 15.772H138.968V26.572C138.968 27.484 138.86 28.228 138.644 28.804C138.452 29.38 138.032 29.836 137.384 30.172C136.784 30.484 136.04 30.676 135.152 30.748C134.288 30.796 133.268 30.82 132.092 30.82C132.02 30.244 131.864 29.584 131.624 28.84C131.408 28.096 131.18 27.46 130.94 26.932C131.636 26.956 132.308 26.98 132.956 27.004C133.604 27.004 134.036 26.992 134.252 26.968C134.468 26.968 134.612 26.932 134.684 26.86C134.78 26.788 134.828 26.644 134.828 26.428V15.772ZM111.464 15.736H115.316V31.648H111.464V15.736ZM154.16 17.104H157.868C157.868 17.104 157.856 17.308 157.832 17.716C157.832 18.1 157.82 18.412 157.796 18.652C157.652 21.652 157.496 24.088 157.328 25.96C157.16 27.832 156.956 29.272 156.716 30.28C156.476 31.288 156.176 32.008 155.816 32.44C155.432 32.896 155.024 33.22 154.592 33.412C154.16 33.604 153.656 33.736 153.08 33.808C152.6 33.856 151.964 33.88 151.172 33.88C150.38 33.904 149.552 33.892 148.688 33.844C148.664 33.316 148.544 32.728 148.328 32.08C148.136 31.432 147.896 30.868 147.608 30.388C148.424 30.46 149.168 30.508 149.84 30.532C150.536 30.556 151.04 30.568 151.352 30.568C151.664 30.568 151.916 30.544 152.108 30.496C152.3 30.424 152.48 30.304 152.648 30.136C152.888 29.848 153.092 29.272 153.26 28.408C153.452 27.52 153.62 26.212 153.764 24.484C153.908 22.756 154.04 20.5 154.16 17.716V17.104ZM143.54 24.916C144.74 24.7 146.132 24.436 147.716 24.124C149.324 23.788 150.98 23.44 152.684 23.08L153.008 26.248C151.496 26.608 149.984 26.968 148.472 27.328C146.984 27.664 145.58 27.976 144.26 28.264L143.54 24.916ZM144.872 1.804H154.34V5.404H144.872V1.804ZM152.9 1.696H156.572C156.524 2.992 156.452 4.36 156.356 5.8C156.284 7.216 156.2 8.632 156.104 10.048C156.008 11.44 155.9 12.772 155.78 14.044C155.66 15.292 155.54 16.42 155.42 17.428L151.748 17.392C151.868 16.36 151.988 15.208 152.108 13.936C152.228 12.64 152.336 11.296 152.432 9.904C152.552 8.512 152.648 7.108 152.72 5.692C152.792 4.276 152.852 2.944 152.9 1.696ZM145.88 7.744L149.588 7.96C149.516 9.304 149.42 10.756 149.3 12.316C149.18 13.852 149.06 15.34 148.94 16.78C148.82 18.196 148.688 19.432 148.544 20.488H144.872C145.016 19.384 145.16 18.1 145.304 16.636C145.448 15.172 145.568 13.672 145.664 12.136C145.784 10.576 145.856 9.112 145.88 7.744ZM146.204 17.14H154.88V20.488H146.204V17.14ZM177.308 2.308V6.196H163.196V29.02H177.956V32.908H159.164V2.308H177.308ZM163.52 10.228L166.58 8.284C167.588 9.58 168.62 10.972 169.676 12.46C170.732 13.924 171.74 15.412 172.7 16.924C173.684 18.436 174.584 19.888 175.4 21.28C176.216 22.648 176.864 23.896 177.344 25.024L173.924 27.4C173.444 26.248 172.82 24.964 172.052 23.548C171.284 22.132 170.42 20.656 169.46 19.12C168.524 17.56 167.54 16.024 166.508 14.512C165.5 13 164.504 11.572 163.52 10.228ZM172.376 7.6L176.264 8.572C175.496 11.02 174.584 13.444 173.528 15.844C172.472 18.22 171.332 20.464 170.108 22.576C168.908 24.688 167.648 26.524 166.328 28.084C166.112 27.844 165.8 27.544 165.392 27.184C165.008 26.824 164.612 26.476 164.204 26.14C163.796 25.78 163.436 25.492 163.124 25.276C164.42 23.884 165.644 22.24 166.796 20.344C167.948 18.448 168.992 16.42 169.928 14.26C170.888 12.076 171.704 9.856 172.376 7.6ZM197.144 8.248H211.292V12.388H197.144V8.248ZM209.06 8.248H213.272C213.272 8.248 213.272 8.368 213.272 8.608C213.272 8.848 213.26 9.124 213.236 9.436C213.236 9.748 213.236 10 213.236 10.192C213.164 13.84 213.068 16.948 212.948 19.516C212.852 22.06 212.732 24.16 212.588 25.816C212.444 27.472 212.264 28.78 212.048 29.74C211.832 30.676 211.58 31.348 211.292 31.756C210.86 32.38 210.416 32.812 209.96 33.052C209.504 33.316 208.952 33.508 208.304 33.628C207.728 33.724 207.008 33.772 206.144 33.772C205.28 33.796 204.38 33.784 203.444 33.736C203.42 33.112 203.288 32.404 203.048 31.612C202.808 30.82 202.508 30.124 202.148 29.524C203.012 29.596 203.804 29.644 204.524 29.668C205.244 29.668 205.796 29.668 206.18 29.668C206.492 29.668 206.744 29.632 206.936 29.56C207.128 29.464 207.32 29.308 207.512 29.092C207.728 28.804 207.908 28.252 208.052 27.436C208.22 26.596 208.364 25.408 208.484 23.872C208.604 22.312 208.7 20.332 208.772 17.932C208.868 15.508 208.964 12.58 209.06 9.148V8.248ZM201.212 1.048H205.496C205.496 3.856 205.46 6.58 205.388 9.22C205.34 11.836 205.196 14.344 204.956 16.744C204.716 19.144 204.332 21.4 203.804 23.512C203.276 25.624 202.556 27.58 201.644 29.38C200.756 31.18 199.592 32.788 198.152 34.204C197.936 33.82 197.636 33.412 197.252 32.98C196.892 32.572 196.508 32.176 196.1 31.792C195.692 31.408 195.308 31.108 194.948 30.892C196.244 29.644 197.288 28.228 198.08 26.644C198.896 25.06 199.508 23.32 199.916 21.424C200.348 19.528 200.648 17.5 200.816 15.34C201.008 13.18 201.116 10.912 201.14 8.536C201.188 6.136 201.212 3.64 201.212 1.048ZM181.916 3.208H196.064V6.988H181.916V3.208ZM180.728 11.56H196.712V15.484H180.728V11.56ZM191.06 18.724L194.552 17.788C194.984 18.772 195.416 19.852 195.848 21.028C196.304 22.18 196.724 23.308 197.108 24.412C197.492 25.516 197.78 26.476 197.972 27.292L194.228 28.48C194.06 27.664 193.808 26.692 193.472 25.564C193.136 24.436 192.752 23.272 192.32 22.072C191.912 20.872 191.492 19.756 191.06 18.724ZM182.276 30.316L181.844 26.68L183.68 25.312L195.344 22.576C195.368 23.128 195.44 23.764 195.56 24.484C195.704 25.204 195.836 25.78 195.956 26.212C193.772 26.788 191.936 27.28 190.448 27.688C188.96 28.072 187.724 28.408 186.74 28.696C185.78 28.96 185.012 29.188 184.436 29.38C183.86 29.572 183.404 29.74 183.068 29.884C182.756 30.004 182.492 30.148 182.276 30.316ZM182.24 30.28C182.192 30.016 182.084 29.644 181.916 29.164C181.772 28.684 181.604 28.204 181.412 27.724C181.22 27.22 181.04 26.788 180.872 26.428C181.232 26.308 181.544 26.044 181.808 25.636C182.096 25.228 182.384 24.7 182.672 24.052C182.816 23.716 183.008 23.188 183.248 22.468C183.512 21.724 183.788 20.86 184.076 19.876C184.364 18.868 184.652 17.8 184.94 16.672C185.228 15.52 185.456 14.38 185.624 13.252L189.872 14.44C189.536 16.024 189.104 17.632 188.576 19.264C188.048 20.872 187.472 22.432 186.848 23.944C186.248 25.432 185.648 26.776 185.048 27.976V28.084C185.048 28.084 184.904 28.156 184.616 28.3C184.328 28.444 184.004 28.636 183.644 28.876C183.284 29.116 182.96 29.368 182.672 29.632C182.384 29.872 182.24 30.088 182.24 30.28ZM218.096 3.136H248.084V6.628H218.096V3.136ZM219.392 29.704H246.968V33.232H219.392V29.704ZM225.584 8.176H240.272V11.2H225.584V8.176ZM225.584 12.784H240.272V15.808H225.584V12.784ZM216.152 17.428H249.848V20.956H216.152V17.428ZM224.36 23.944H241.712V27.364H224.36V23.944ZM223.064 0.399999H227.384V19.336H223.064V0.399999ZM238.724 0.435999H243.152V19.372H238.724V0.435999ZM230.732 21.676H235.124V31.756H230.732V21.676ZM225.26 18.436L228.896 19.768C228.128 21.04 227.192 22.252 226.088 23.404C225.008 24.532 223.832 25.564 222.56 26.5C221.288 27.412 219.968 28.168 218.6 28.768C218.384 28.432 218.12 28.06 217.808 27.652C217.496 27.244 217.16 26.848 216.8 26.464C216.464 26.056 216.14 25.732 215.828 25.492C217.1 25.012 218.336 24.412 219.536 23.692C220.736 22.972 221.828 22.156 222.812 21.244C223.82 20.332 224.636 19.396 225.26 18.436ZM240.92 18.436C241.568 19.348 242.372 20.236 243.332 21.1C244.316 21.94 245.396 22.708 246.572 23.404C247.772 24.1 248.996 24.676 250.244 25.132C249.932 25.396 249.596 25.732 249.236 26.14C248.876 26.524 248.528 26.92 248.192 27.328C247.88 27.736 247.616 28.108 247.4 28.444C246.104 27.868 244.844 27.124 243.62 26.212C242.396 25.3 241.256 24.292 240.2 23.188C239.144 22.06 238.244 20.908 237.5 19.732L240.92 18.436ZM268.856 4.54C267.872 5.908 266.624 7.324 265.112 8.788C263.624 10.252 261.968 11.656 260.144 13C258.344 14.344 256.46 15.544 254.492 16.6C254.3 16.24 254.048 15.844 253.736 15.412C253.448 14.98 253.124 14.56 252.764 14.152C252.428 13.744 252.104 13.384 251.792 13.072C253.856 12.088 255.836 10.876 257.732 9.436C259.628 7.972 261.32 6.448 262.808 4.864C264.32 3.28 265.52 1.756 266.408 0.291998H270.908C271.892 1.66 272.972 2.968 274.148 4.216C275.324 5.464 276.584 6.616 277.928 7.672C279.272 8.728 280.652 9.676 282.068 10.516C283.484 11.356 284.912 12.064 286.352 12.64C285.8 13.192 285.284 13.816 284.804 14.512C284.324 15.208 283.88 15.88 283.472 16.528C282.104 15.808 280.712 14.98 279.296 14.044C277.904 13.108 276.56 12.112 275.264 11.056C273.968 9.976 272.768 8.884 271.664 7.78C270.56 6.676 269.624 5.596 268.856 4.54ZM259.856 11.2H277.964V14.98H259.856V11.2ZM255.536 18.544H282.212V22.288H255.536V18.544ZM253.736 29.488H284.336V33.196H253.736V29.488ZM266.516 12.712H271.088V31.36H266.516V12.712ZM257.804 23.656L261.26 22.216C261.716 22.816 262.16 23.476 262.592 24.196C263.048 24.916 263.456 25.624 263.816 26.32C264.176 27.016 264.44 27.64 264.608 28.192L260.9 29.848C260.756 29.296 260.516 28.66 260.18 27.94C259.844 27.196 259.472 26.452 259.064 25.708C258.656 24.964 258.236 24.28 257.804 23.656ZM276.092 22.252L280.232 23.764C279.512 24.868 278.768 25.972 278 27.076C277.232 28.156 276.524 29.08 275.876 29.848L272.636 28.48C273.044 27.904 273.464 27.268 273.896 26.572C274.328 25.852 274.736 25.12 275.12 24.376C275.504 23.608 275.828 22.9 276.092 22.252Z"
          fill="#222222"/>
</svg>
